platform/icons/src/nodes/pointcut.svg

<svg id="Layer_1" data-name="Layer 1" xmlns="http://www.w3.org/2000/svg" width="16" height="16" viewBox="0 0 16 16">
  <title>pointcut</title>
  <g>
    <g id="_Group_" data-name="&lt;Group&gt;" opacity="0.6">
      <circle cx="8" cy="8" r="7" fill="#b99bf8"/>
    </g>
    <path d="M8.71632,10.6232a2.471,2.471,0,0,1-.586-.06424,2.22248,2.22248,0,0,1-.47371-.17047,1.732,1.732,0,0,1-.3724-.24954,2.41414,2.41414,0,0,1-.28752-.30142H6.931q.01643.168.03286.32119.01095.12847.0219.26436t.011.21494v2.31747H6V5.09883h.81051l.14239.73131h.04381a2.36658,2.36658,0,0,1,.28478-.32366,1.65356,1.65356,0,0,1,.36966-.26189,2.14214,2.14214,0,0,1,.47371-.17788,2.59169,2.59169,0,0,1,1.52793.11118,1.895,1.895,0,0,1,.72016.53119,2.50064,2.50064,0,0,1,.46276.87708A4.06868,4.06868,0,0,1,11,7.80172a4.1123,4.1123,0,0,1-.16429,1.223,2.52516,2.52516,0,0,1-.46276.882,1.90759,1.90759,0,0,1-.72016.53613A2.35777,2.35777,0,0,1,8.71632,10.6232ZM8.52464,5.74614a1.92,1.92,0,0,0-.70372.11365,1.06743,1.06743,0,0,0-.4655.34589,1.54284,1.54284,0,0,0-.26287.57813,3.82873,3.82873,0,0,0-.09584.81531v.2026a4.77085,4.77085,0,0,0,.07394.887,1.73913,1.73913,0,0,0,.25191.65225,1.12611,1.12611,0,0,0,.47372.40025,1.77058,1.77058,0,0,0,.73932.13588,1.201,1.201,0,0,0,1.08707-.5386,2.85674,2.85674,0,0,0,.34776-1.54663,2.74389,2.74389,0,0,0-.34776-1.53674A1.23547,1.23547,0,0,0,8.52464,5.74614Z" fill="#231f20" opacity="0.7"/>
  </g>
</svg>

<svg xmlns="http://www.w3.org/2000/svg" width="16" height="16" viewBox="0 0 16 16">
  <g fill="none" fill-rule="evenodd">
    <path fill="#B99BF8" fill-opacity=".6" d="M15,8 C15,11.866 11.866,15 8,15 C4.134,15 1,11.866 1,8 C1,4.134 4.134,1 8,1 C11.866,1 15,4.134 15,8"/>
    <path fill="#231F20" fill-opacity=".7" d="M8.5244,5.7461 C8.2474,5.7461 8.0124,5.7841 7.8214,5.8591 C7.6284,5.9351 7.4734,6.0511 7.3554,6.2061 C7.2364,6.3601 7.1494,6.5531 7.0924,6.7841 C7.0364,7.0151 7.0034,7.2861 6.9974,7.6001 L6.9974,7.8021 C6.9974,8.1351 7.0214,8.4301 7.0704,8.6881 C7.1204,8.9471 7.2044,9.1651 7.3224,9.3411 C7.4414,9.5171 7.5994,9.6501 7.7954,9.7411 C7.9934,9.8321 8.2404,9.8771 8.5354,9.8771 C9.0284,9.8771 9.3904,9.6971 9.6234,9.3391 C9.8544,8.9791 9.9704,8.4641 9.9704,7.7921 C9.9704,7.1061 9.8544,6.5951 9.6234,6.2551 C9.3904,5.9161 9.0244,5.7461 8.5244,5.7461 M8.7164,10.6231 C8.5014,10.6231 8.3054,10.6011 8.1294,10.5581 C7.9554,10.5171 7.7964,10.4591 7.6564,10.3891 C7.5154,10.3171 7.3914,10.2341 7.2844,10.1391 C7.1764,10.0431 7.0814,9.9431 6.9974,9.8381 L6.9304,9.8381 C6.9424,9.9491 6.9534,10.0571 6.9634,10.1591 C6.9704,10.2441 6.9784,10.3321 6.9854,10.4231 C6.9934,10.5141 6.9974,10.5851 6.9974,10.6381 L6.9974,12.9551 L6.0004,12.9551 L6.0004,5.0991 L6.8104,5.0991 L6.9534,5.8301 L6.9974,5.8301 C7.0814,5.7151 7.1754,5.6071 7.2814,5.5071 C7.3874,5.4061 7.5104,5.3181 7.6514,5.2441 C7.7924,5.1711 7.9494,5.1111 8.1254,5.0661 C8.2994,5.0221 8.4974,5.0001 8.7164,5.0001 C9.0594,5.0001 9.3724,5.0591 9.6524,5.1781 C9.9334,5.2971 10.1734,5.4741 10.3734,5.7091 C10.5724,5.9441 10.7264,6.2371 10.8364,6.5861 C10.9454,6.9351 11.0004,7.3411 11.0004,7.8021 C11.0004,8.2671 10.9454,8.6741 10.8364,9.0241 C10.7264,9.3761 10.5724,9.6701 10.3734,9.9061 C10.1734,10.1431 9.9334,10.3221 9.6524,10.4421 C9.3724,10.5631 9.0594,10.6231 8.7164,10.6231"/>
  </g>
</svg>
